weblate_web/static/img/logo-turris.svg

<svg xmlns="http://www.w3.org/2000/svg" xmlns:xlink="http://www.w3.org/1999/xlink" width="176" height="60" version="1.1" viewBox="0 0 176 60"><title>4E0BDC99-4EC2-4693-B3A2-0B42B84E3D4B</title><desc>Created with sketchtool.</desc><g id="Weblate" fill="none" fill-rule="evenodd" stroke="none" stroke-width="1"><g id="Home" fill="#2A3744" fill-rule="nonzero" transform="translate(-345.000000, -803.000000)"><g id="Users" transform="translate(345.000000, 730.000000)"><g id="Logo-Turris" transform="translate(0.000000, 73.000000)"><path id="Path" fill-opacity=".7" d="M8.06835154,13.929704 C3.80091325,6.54803526 0.2650358,0.434276717 0.230199569,0.330064924 C0.195363338,0.243221763 2.75582632,0.173747234 6.39621246,0.173747234 L12.5970616,0.173747234 L17.334789,8.33700438 L22.0550983,16.5002615 L31.5653894,16.5523674 L41.0756804,16.6044733 L43.4619622,20.7382078 C44.7683209,23.0134986 46.144352,25.4277385 46.5275506,26.1051151 L47.2416933,27.3556567 L31.5305531,27.338288 L15.8368311,27.338288 L8.06835154,13.929704 Z" transform="translate(23.735771, 13.764702) scale(-1, 1) rotate(-180.000000) translate(-23.735771, -13.764702)"/><path id="Path" d="M44.2109412,43.7340353 C39.9260848,36.3002607 36.4250436,30.1343963 36.4250436,30.0128159 C36.4250436,29.7001805 51.8574939,3.03933002 52.0316751,3.00459275 C52.1187656,2.98722412 53.5818873,5.38409537 55.2714446,8.31939421 L58.3718691,13.6515643 L54.8708279,19.7132169 C52.9374171,23.0479943 50.7949889,26.7301444 50.1156824,27.8938427 L48.8789962,30.0128159 L53.37287,37.7418572 C55.8288242,41.9971721 57.9538343,45.6793221 58.0931793,45.9398516 C58.3370329,46.4088047 58.2325242,46.6345969 55.2714446,51.7409748 C53.5818873,54.6762736 52.1536019,57.1078821 52.1013475,57.1426194 C52.0490932,57.1947253 48.5132157,51.1678099 44.2109412,43.7340353 Z" transform="translate(47.398456, 30.073727) scale(-1, 1) rotate(-180.000000) translate(-47.398456, -30.073727)"/><path id="Path" d="M165.85906,40.0706992 C163.577287,39.5149029 161.713548,38.142781 160.825224,36.3538119 C160.389772,35.450643 160.320099,35.120639 160.320099,33.609568 C160.320099,32.0290224 160.372353,31.7858616 160.860061,30.8826927 C161.400022,29.9274179 162.462527,28.8679314 163.350851,28.3989783 C163.612123,28.2600293 164.779137,27.8258134 165.94615,27.4263349 C169.569118,26.1757934 170.10908,25.7763148 170.10908,24.2999811 C170.10908,23.2404945 169.778136,22.7715415 168.733049,22.3720629 C167.130582,21.7641608 164.866227,22.3025884 163.350851,23.6747103 L162.584454,24.3694556 L160.860061,22.649961 L159.118249,20.9304665 L159.762719,20.3573016 C162.81089,17.6999009 168.767885,17.0746301 172.181836,19.0720228 C173.749466,19.9925603 174.829389,21.5383686 175.230006,23.4662868 C175.648041,25.4984167 175.142915,27.4263349 173.871393,28.7289823 C172.79147,29.8232062 171.990237,30.257422 169.482028,31.1432222 C165.94615,32.3937637 165.545534,32.6716618 165.545534,33.8700975 C165.545534,34.8427409 165.893896,35.3290626 166.904147,35.7111725 C168.419523,36.2843373 170.683878,35.780647 171.86831,34.59958 L172.303763,34.1653642 L173.279177,35.2074821 C173.819139,35.780647 174.568118,36.5796041 174.933898,36.9964513 L175.595786,37.7606711 L175.003571,38.2643614 C174.237173,38.9070008 172.51278,39.7059579 171.119331,40.0706992 C169.795554,40.4180718 167.287345,40.4007032 165.85906,40.0706992 Z" transform="translate(167.357018, 29.110490) scale(-1, 1) rotate(-180.000000) translate(-167.357018, -29.110490)"/><path id="Path" d="M69.0840101,39.8263346 C69.0317558,39.7568601 68.9795015,38.7321108 68.9795015,37.5336751 L68.9795015,35.3799647 L71.9928354,35.3799647 L75.0061694,35.3799647 L75.0584238,26.9388095 L75.09326,18.5150229 L77.7059773,18.462917 L80.3186946,18.4108111 L80.3186946,26.8867036 L80.3186946,35.3799647 L83.3320286,35.3799647 L86.3453626,35.3799647 L86.3453626,37.6552556 L86.3453626,39.947915 L77.7756498,39.947915 C73.0727586,39.947915 69.1536826,39.8784405 69.0840101,39.8263346 Z" transform="translate(77.662432, 29.179363) scale(-1, 1) rotate(-180.000000) translate(-77.662432, -29.179363)"/><path id="Path" d="M88.4355365,40.1749978 C88.365864,40.0360487 88.365864,36.6491654 88.4007002,32.65438 C88.4877908,24.8732328 88.522627,24.5605974 89.5154596,22.6500479 C90.0902574,21.4863495 91.6927241,20.0100158 93.033919,19.384745 C97.2142667,17.4047209 102.8229,18.5510507 105.261436,21.8510908 C106.776812,23.9005894 106.829066,24.2132248 106.829066,32.8975409 L106.829066,40.4528959 L104.268603,40.4528959 L101.70814,40.4528959 L101.70814,33.6443921 C101.70814,29.6669753 101.62105,26.5232529 101.516541,26.0369312 C101.272688,25.0121819 100.750144,24.2132248 99.9140746,23.6574285 C99.3566949,23.2753186 99.0605869,23.2058441 97.6845558,23.2058441 C96.2736884,23.2058441 96.0298348,23.25795 95.3679464,23.6921658 C94.8976573,24.0048012 94.4622044,24.5084915 94.1835146,25.0642878 C93.7654798,25.9327194 93.7480617,26.0195625 93.6609711,33.1580704 L93.5738805,40.3486841 L91.0482538,40.40079 C88.9406618,40.4528959 88.522627,40.40079 88.4355365,40.1749978 Z" transform="translate(97.603442, 29.431853) scale(-1, 1) rotate(-180.000000) translate(-97.603442, -29.431853)"/><path id="Shape" d="M111.166177,39.8655124 C111.096505,39.7786693 111.04425,34.9328209 111.04425,29.0795918 L111.04425,18.4499889 L113.587295,18.4499889 L116.147758,18.4499889 L116.200013,22.6879352 L116.252267,26.9258814 L117.070918,26.9779873 L117.88957,27.0300932 L120.241015,22.7400411 L122.592461,18.4499889 L125.605795,18.4499889 C127.260516,18.4499889 128.584293,18.5020948 128.532038,18.5715693 C128.497202,18.6584125 127.295352,20.6210679 125.867067,22.9484647 C124.456199,25.2758614 123.236931,27.2906227 123.202095,27.4122031 C123.132423,27.5685208 123.428531,27.7769444 123.968492,28.0027366 C125.10067,28.4716897 126.30252,29.6006508 126.912154,30.7469805 C127.330188,31.5459376 127.399861,31.8933102 127.399861,33.4043813 C127.399861,35.4886171 126.964408,36.6349468 125.762558,37.7639079 C123.846565,39.5007712 122.627297,39.7786693 116.339358,39.9002497 C113.569877,39.9523556 111.253268,39.934987 111.166177,39.8655124 Z M120.450033,35.5754603 C122.069918,35.1586131 122.836315,33.5433303 122.035081,32.2406829 C121.408029,31.2506709 120.589378,30.9554041 118.220514,30.8685609 L116.165176,30.7990864 L116.165176,33.2828008 L116.165176,35.7665152 L117.906988,35.7665152 C118.864984,35.7665152 120.01458,35.6796721 120.450033,35.5754603 Z" transform="translate(119.788892, 29.190268) scale(-1, 1) rotate(-180.000000) translate(-119.788892, -29.190268)"/><path id="Shape" d="M131.284101,39.8655124 C131.214428,39.7786693 131.162174,34.9328209 131.162174,29.0795918 L131.162174,18.4499889 L133.722637,18.4499889 L136.2831,18.4499889 L136.2831,22.7226724 L136.2831,27.0127246 L137.066915,27.0127246 C137.519786,27.0127246 137.955239,26.9085128 138.059748,26.7869324 C138.164256,26.665352 139.209343,24.7895397 140.393775,22.6358293 C141.578207,20.4821189 142.588458,18.6584125 142.65813,18.5715693 C142.727802,18.5020948 144.121252,18.4499889 145.741136,18.4847262 L148.684798,18.5368321 L145.950154,23.0005706 C144.452196,25.4495477 143.232928,27.4990463 143.232928,27.5511522 C143.232928,27.6032581 143.616126,27.8116817 144.086415,28.0027366 C145.270847,28.4890583 146.559788,29.7395999 147.082331,30.9032982 C147.691965,32.2406829 147.691965,34.7070287 147.082331,36.0791506 C146.612042,37.1212685 145.497283,38.2675983 144.382523,38.8407631 C142.745221,39.6744575 141.73497,39.7960379 136.457281,39.9002497 C133.687801,39.9523556 131.371191,39.934987 131.284101,39.8655124 Z M140.567956,35.5754603 C141.020827,35.4538799 141.578207,35.1412445 141.874315,34.8286091 C142.309768,34.3770247 142.396858,34.1338638 142.396858,33.369644 C142.396858,32.5533183 142.327186,32.3970006 141.73497,31.8412044 C140.881482,31.0596159 140.062831,30.8511923 137.972657,30.8511923 L136.2831,30.8511923 L136.2831,33.3001695 L136.2831,35.7665152 L138.024911,35.7665152 C138.982908,35.7665152 140.132503,35.6796721 140.567956,35.5754603 Z" transform="translate(139.923486, 29.190268) scale(-1, 1) rotate(-180.000000) translate(-139.923486, -29.190268)"/><path id="Path" d="M151.402024,39.808966 C151.332352,39.7394914 151.280097,34.893643 151.280097,29.040414 L151.280097,18.4108111 L153.927651,18.4108111 L156.575204,18.4108111 L156.575204,29.1619944 L156.575204,39.9305464 L154.049578,39.9305464 C152.656128,39.9305464 151.454278,39.8610719 151.402024,39.808966 Z" transform="translate(153.927651, 29.170679) scale(-1, 1) rotate(-180.000000) translate(-153.927651, -29.170679)"/><path id="Path" d="M0.61339811,58.93183 C0.944342304,58.3586652 2.35520966,55.8923194 3.76607702,53.4607109 L6.32653999,49.0490783 L15.8368311,49.0490783 L25.3471221,49.0317097 L30.0151771,40.9205584 L34.683232,32.8267758 L40.9363355,32.8267758 C44.3851224,32.8267758 47.2068571,32.8615131 47.2068571,32.9309876 C47.2068571,33.0004621 43.6883977,39.1142207 39.3861232,46.513258 L31.5653894,59.9913166 L15.7845767,59.9913166 L0.00376406723,59.9913166 L0.61339811,58.93183 Z" transform="translate(23.605311, 46.409046) scale(-1, 1) rotate(-180.000000) translate(-23.605311, -46.409046)"/></g></g></g></g></svg>

<svg width="176" height="60" version="1.1" viewBox="0 0 176 60" xmlns="http://www.w3.org/2000/svg"><g fill="none" fill-rule="evenodd"><g transform="translate(-345 -803)" fill="#2A3744" fill-rule="nonzero"><g transform="translate(345 730)"><g transform="translate(0 73)"><path id="Path" transform="translate(23.736 13.765) scale(-1 1) rotate(180) translate(-23.736 -13.765)" d="m8.0684 13.93c-4.2674-7.3817-7.8033-13.495-7.8382-13.6-0.034836-0.086843 2.5256-0.15632 6.166-0.15632h6.2008l4.7377 8.1633 4.7203 8.1633 19.021 0.10421 2.3863 4.1337c1.3064 2.2753 2.6824 4.6895 3.0656 5.3669l0.71414 1.2505-15.711-0.017369h-15.694l-7.7685-13.409z" fill-opacity=".7"/><path id="Path" transform="translate(47.398 30.074) scale(-1 1) rotate(180) translate(-47.398 -30.074)" d="m44.211 43.734c-4.2849-7.4338-7.7859-13.6-7.7859-13.721 0-0.31264 15.432-26.973 15.607-27.008 0.08709-0.017369 1.5502 2.3795 3.2398 5.3148l3.1004 5.3322-3.501 6.0617c-1.9334 3.3348-4.0758 7.0169-4.7551 8.1806l-1.2367 2.119 4.4939 7.729c2.456 4.2553 4.581 7.9375 4.7203 8.198 0.24385 0.46895 0.13934 0.69475-2.8217 5.8011-1.6896 2.9353-3.1178 5.3669-3.1701 5.4016-0.052254 0.052106-3.5881-5.9748-7.8904-13.409z"/><path id="Path" transform="translate(167.36 29.11) scale(-1 1) rotate(180) translate(-167.36 -29.11)" d="m165.86 40.071c-2.2818-0.5558-4.1455-1.9279-5.0338-3.7169-0.43545-0.90317-0.50512-1.2332-0.50512-2.7442 0-1.5805 0.052254-1.8237 0.53996-2.7269 0.53996-0.95527 1.6025-2.0148 2.4908-2.4837 0.26127-0.13895 1.4283-0.57316 2.5953-0.97264 3.623-1.2505 4.1629-1.65 4.1629-3.1264 0-1.0595-0.33094-1.5284-1.376-1.9279-1.6025-0.6079-3.8668-0.069474-5.3822 1.3026l-0.7664 0.69475-1.7244-1.7195-1.7418-1.7195 0.64447-0.57316c3.0482-2.6574 9.0052-3.2827 12.419-1.2853 1.5676 0.92054 2.6476 2.4663 3.0482 4.3943 0.41804 2.0321-0.087091 3.96-1.3586 5.2627-1.0799 1.0942-1.8812 1.5284-4.3894 2.4142-3.5359 1.2505-3.9365 1.5284-3.9365 2.7269 0 0.97264 0.34836 1.459 1.3586 1.8411 1.5154 0.57316 3.7797 0.069474 4.9642-1.1116l0.43545-0.43422 0.97541 1.0421c0.53996 0.57316 1.2889 1.3721 1.6547 1.789l0.66189 0.76422-0.59222 0.50369c-0.7664 0.64264-2.4908 1.4416-3.8842 1.8063-1.3238 0.34737-3.832 0.33-5.2603 0z"/><path id="Path" transform="translate(77.662 29.179) scale(-1 1) rotate(180) translate(-77.662 -29.179)" d="m69.084 39.826c-0.052254-0.069474-0.10451-1.0942-0.10451-2.2927v-2.1537h6.0266l0.052254-8.4412 0.034836-8.4238 5.2254-0.10421v16.969h6.0266v4.568h-8.5697c-4.7029 0-8.622-0.069474-8.6916-0.12158z"/><path id="Path" transform="translate(97.603 29.432) scale(-1 1) rotate(180) translate(-97.603 -29.432)" d="m88.436 40.175c-0.069672-0.13895-0.069672-3.5258-0.034836-7.5206 0.087091-7.7811 0.12193-8.0938 1.1148-10.004 0.5748-1.1637 2.1773-2.64 3.5185-3.2653 4.1803-1.98 9.789-0.83369 12.228 2.4663 1.5154 2.0495 1.5676 2.3621 1.5676 11.046v7.5554h-5.121v-6.8085c0-3.9774-0.08709-7.1211-0.1916-7.6075-0.24385-1.0247-0.7664-1.8237-1.6025-2.3795-0.55738-0.38211-0.85349-0.45158-2.2295-0.45158-1.4109 0-1.6547 0.052106-2.3166 0.48632-0.47029 0.31264-0.90574 0.81633-1.1844 1.3721-0.41803 0.86843-0.43545 0.95527-0.52254 8.0938l-0.087091 7.1906-2.5256 0.052106c-2.1076 0.052106-2.5256 0-2.6127-0.22579z"/><path transform="translate(119.79 29.19) scale(-1 1) rotate(180) translate(-119.79 -29.19)" d="m111.17 39.866c-0.069672-0.086843-0.12193-4.9327-0.12193-10.786v-10.63h5.1035l0.052255 4.2379 0.052254 4.2379 1.6373 0.10421 4.7029-8.5801h3.0133c1.6547 0 2.9785 0.052106 2.9262 0.12158-0.034836 0.086843-1.2367 2.0495-2.665 4.3769-1.4109 2.3274-2.6301 4.3422-2.665 4.4637-0.069672 0.15632 0.22644 0.36474 0.7664 0.59053 1.1322 0.46895 2.334 1.5979 2.9437 2.7442 0.41803 0.79896 0.48771 1.1463 0.48771 2.6574 0 2.0842-0.43545 3.2306-1.6373 4.3595-1.916 1.7369-3.1353 2.0148-9.4232 2.1363-2.7695 0.052106-5.0861 0.034737-5.1732-0.034737zm9.2839-4.2901c1.6199-0.41685 2.3863-2.0321 1.585-3.3348-0.62705-0.99001-1.4457-1.2853-3.8146-1.3721l-2.0553-0.069474v4.9674h1.7418c0.958 0 2.1076-0.086843 2.543-0.19105z"/><path transform="translate(139.92 29.19) scale(-1 1) rotate(180) translate(-139.92 -29.19)" d="m131.28 39.866c-0.069673-0.086843-0.12193-4.9327-0.12193-10.786v-10.63h5.121v8.5628h0.78382c0.45287 0 0.88832-0.10421 0.99283-0.22579s1.1496-1.9974 2.334-4.1511 2.1947-3.9774 2.2644-4.0643c0.069672-0.069474 1.4631-0.12158 3.083-0.086843l2.9437 0.052106-2.7346 4.4637c-1.498 2.449-2.7172 4.4985-2.7172 4.5506s0.3832 0.26053 0.85349 0.45158c1.1844 0.48632 2.4734 1.7369 2.9959 2.9006 0.60963 1.3374 0.60963 3.8037 0 5.1759-0.47029 1.0421-1.585 2.1884-2.6998 2.7616-1.6373 0.83369-2.6476 0.95527-7.9252 1.0595-2.7695 0.052106-5.0861 0.034737-5.1732-0.034737zm9.2839-4.2901c0.45287-0.12158 1.0103-0.43422 1.3064-0.74685 0.43545-0.45158 0.52254-0.69475 0.52254-1.459 0-0.81633-0.069672-0.97264-0.66189-1.5284-0.85349-0.78159-1.6721-0.99001-3.7623-0.99001h-1.6896v4.9153h1.7418c0.958 0 2.1076-0.086843 2.543-0.19105z"/><path transform="translate(153.93 29.171) scale(-1 1) rotate(180) translate(-153.93 -29.171)" d="m151.4 39.809c-0.069672-0.069475-0.12193-4.9153-0.12193-10.769v-10.63h5.2952v21.52h-2.5256c-1.3934 0-2.5953-0.069474-2.6476-0.12158z"/><path transform="translate(23.605 46.409) scale(-1 1) rotate(180) translate(-23.605 -46.409)" d="m0.6134 58.932c0.33094-0.57316 1.7418-3.0395 3.1527-5.4711l2.5605-4.4116h9.5103l9.5103-0.017369 4.6681-8.1112 4.6681-8.0938h6.2531c3.4488 0 6.2705 0.034737 6.2705 0.10421s-3.5185 6.1832-7.8207 13.582l-7.8207 13.478h-31.562l0.60963-1.0595z"/></g></g></g></g></svg>
